X:1
T:Siebenschritt
C:traditionell
R:volkstanz
A:'Matzdorf' (Zips; deutsche sprach-insel), Slowakei
F:http://simonwascher.info/
Z:abc transcription Simon Wascher
M:2/4
L:1/8
K:F
CF CF | EG E2 | GB GB | Ac A2 |\
cc d2 | BG c2 | AA GG | FA c2 |
cc d2 | BG c2 | AA GG | "ende"F4 :||:\
K:C
Gc Gc | Bd B2 | df df | eg e2 |
gg a2 | fd g2 | ee dd | ce g2 |\
gg a2 | fd g2 | ee dd | "ende"c4 :|
W:aus Simon Waschers TradArchiv

